X:1
T:Risposta di Nettuno
T:Risposta di Nettuno
T:Giovanni Ghizzolo
C:Giovanni Ghizzolo
%%score 1 { 2 | 3 }
L:1/8
Q:1/4=120
M:4/4
K:F
V:1 bass nm="Bass" snm="B"
V:2 treble nm="MusicXML Part"
V:3 bass 
V:1
"^Source: Madrigali et Arie---Libro secondo---Venetia---A.Raverij---1609.\nEditor André Vierendeels (26/9/08)\nContinuo: André Vierendeels" z2 G,G, G,2 _E,D, | %1
w: Del- le Nin- fe ter-|
 F,4 F,,4 | z2 B,,B,, B,,2 A,,G,, | D,4 D,,4 | G,2 G,G, G,A, B,2- | B,2 _E,4 E,D, | F,4 F,,4 | %7
w: re- ne|la bel- ta non m'of-|fen- da|fi- glie del o- ce- an|_ dol- ci Si-|re- ne|
 B,2 F,2 F,2 F,F, | F,3 F, F,2 G,2 | C,2 C,C, C,3 =B,, | C,2 D,2 G,,4 | G,,2 G,4 F,D, | G,A, B,6 | %13
w: for- s'il trat- to del|ciel che noi dis-|gion- ge la for- ma|lu- sin- ghie-|ra va- ga piu|che non e|
 G,2 A,A, D,4 | D,4 B,,2 C,D, | _E,3 D, F,4 | F,2 _E,F, G,2 F,F, | B,,4 B,,2 B,2- | %18
w: mos- tra da lon-|ge Ma per- che-|me- glio'at- ten-|da se sia fal- sa'o sia|ve- ra, va-|
 B,2 A,G, F,_E,D,C, | B,,2 G,,2 D,,4 | G,,8 |] %21
w: * da di Pro- te'o- ad' is-|par la schie-|ra.|
V:2
 [EGB]8 | [FAc]8 | [DFB]4 [DGB]4 | [D^FA]8 | [DG]4 [DGB]4 | [GB]4 [GB]2 [Gc]2 | [FAc]8 | %7
 [DFB]2 [FA]2 [FAc]4 | [CFA]6 [DGB]2 | [EGc]4 [CG]2 D2 | [EG]2 [^FA]2 [D-G=B-]4 | [DGB]2 [DG]4 FG | %12
 [DGB]4 [DFB]4 | [GBd]2 [EA^c]2 [D^FAd]4 | [D^FAd]4 [DB]4 | [GB]2 c2 [FAc]4 | %16
 [Fc]8"^Note: original keys: Fa 4rth, Fa 4rth." | [FB]4 [DB]4 | [DF]4 [DFB]4 | %19
 [DB]2 [Gc]2 [D^FA]4 | [DGB]8 |] %21
V:3
 G,,8 | F,,8 | B,,4 G,,4 | D,,8 | G,8 | _E,8 | F,4 F,,4 | B,2 F,2 F,4 | F,6 G,2 | C,4 C,2 =B,,2 | %10
 C,2 D,2 G,,4 | G,,8 | G,4 B,4 | G,2 A,2 D,4 | D,4 B,,4 | _E,4 F,4 | F,,8 | B,,8 | B,,8 | %19
 G,,4 D,,4 | G,,8 |] %21

